X:17151
T:The Red Bee
R:Reel
S:
H:
N:
D:Milltown Session
Z:Adrian Scahill
M:4/4
L:1/8
K:D
fBB2 cBAF|dBcA BAFE|FBB2 ABce|fcec Bcde|\
fBB2 cBAF|EFAB cBce|fafe cBAF|EFAc B4:||\
B2cB fBB2|afge fecA|B2cB fBcB|AFEF ABcA|\
B2cB fBB2|afge fece|f3e cBAF|EFAc B4:||\
d2 (3ddd adbd|afdf edBd|Add2 e2fe|dBAF EFGA|\
d2 (3ddd adbd|afdf edBd|f3e cBAc|BdcA B4:||
